X: 1
T: Election jig
N: Also known as Buy Broom Besoms, Buy Broom Buzzems.
R: slip-jig
Z: 2020 John Chambers <jc:trillian.mit.edu>
S: https://www.facebook.com/groups/Fiddletuneoftheday/ 2020-11-03
S: https://www.facebook.com/groups/Fiddletuneoftheday/photos/
S: https://thesession.org/tunes/13113
M: 9/8
L: 1/8
K: D
|: D2F A2B GFE | D2F A2B GFE | D2F A2B GFE | FEF DED GFG |
|  EFE FED CDE | FEF DEF GFG | EFE FED CDE | FED GFE D2 :|
